X: 21381
T: MY LOVE SHE'S BUT A LASSIE YET.
T: Old name -- Lady Badinscoth's reel
O: Scottish air.
%R: air, march, reel
B: W. Hamilton "Universal Tune-Book" Vol. 2 Glasgow 1846 p.138 #1
S: http://s3-eu-west-1.amazonaws.com/itma.dl.printmaterial/book_pdfs/hamiltonvol2web.pdf
Z: 2016 John Chambers <jc:trillian.mit.edu>
M: 2/4
L: 1/16
K: D
% - - - - - - - - - - - - - - - - - - - - - - - - -
(Bc) |\
d2D2F2A2 | d2D2 D2(Bc) | d2D2F2A2 | e2E2 E2Bc |\
d2D2F2A2 | d2g2f3e | (dc)(BA) B3c | d2D2D2 :|
|: (fg) |\
a2f2g2e2 | f2d2 d2(fg) | a2f2g3f | e2E2 E2fg |\
a2f2g2e2 | f2d2e2c2 | (dc)(BA) B2c2 | d2D2D2 :|
% - - - - - - - - - - - - - - - - - - - - - - - - -

%%sep 1 1 500
%%sep 1 1 500

